!!!OTL: Schatz, ach Schatz,
!!!id: T0338
**kern
*clefG2
*k[f#c#]
*D:
{8d
8f#
=1
4a
8a
8a
8b
8b
=2
8a
8g
4f#}
=3
{8d
8f#
=4
4a
8a
8a
8b
8b
=5
8a
8g
4f#}
=6
{4a
=7
8f#
8a
8a
8dd
8dd}
=8
{16dd
16dd
=9
8cc#
16b
16b
8a
8dd
8f#}
=10
{8a
=11
8b
8a
8cc#
8b
8cc#}
=12
{8b
=13
8a
8g
4f#}
=14
{4a
=15
8f#
8a
8a
8dd
8dd}
=16
{16dd
16dd
=17
8cc#
16b
16b
8a
8ee
8f#}
=18
{8a
=19
8b
8a
8cc#
8b
8cc#}
=20
{8b
=21
8a
8g
4f#}
==
*-
!!!minrhy: 16
!!!meters: 3/4 ]  ZZ[10
!!!cut1: Schatz, ach Schatz,
!!!cut2: reise nicht so weit von hier! (165a), S. 359f
!!!reg: Luxemburg
!!!trd: Singendes Volk, Esch-Alzette, 1937 posth.
!!!rhy1: X_X_  X__X_X_X_X_  X_X_X__   (x2)
!!!rhy2: X_X_  X__X_X_X_X_  X_X_X__
!!!key: T0338  16  D 3/4 ]  ZZ[10
!!!mod: HEPTATONIK IONISCH]  AMBITUS[9
!!!kad: 33+1373+1373
!!!akz: 55_55_3_7_6_5_3_7_6_5_
!!!fot: 'a__a__b__c__d__e__b__f__d__e__
!!!for: 'a__a__b__c__bv_bw_b__c__bv_bw_
!!!fok: '^a_^a_Va_\__/__\__Va_\__/__\__
!! PHRAS[AUFTAKTIG]
!!!fkt: Abschieds- und Wanderlieder, Heimatlieder,  Liebeslied
!!!bem1: Reuland, Katarina, 1910
!!!bem2: (165b)- Junglinster, Vater des Verfassers, um 1890
!! THILL, Mathias:
!! PR[21] 2K[4] 2G[18] 3K[4] 3G[4] 4A[7] 4Ü[0] 5A[0] 6K[0] 6G[0]
!! 7K[4] 7G[0] 8A[0] MEHR[0] SI[39] ABS[28] SR[21] SP[18]
!! ST[15] 2k[4] 2g[18] 3k[11] 3g[4] 4d[0] 4ü[0] 5d[0] 6k[0] 6g[4]
!! 7k[0] 7g[0] 8d[0] mehr[0] si[39] dm[0] sr[21] sp[18]
!! 1F[25] 2F[69] 3F[6] 4F[0] LF[0] 2P[0] 3P[0] 4P[0] TRI[0] DF[3] AB[32]
!! TF[0] U3K[0] U3[0] U4[0] U4Ü[0] U5[21] U6K[0] U6[10] U7K[0] U7[7]
!! N1[24] N2K[0] N2[14] N3K[0] N3[14] N4[7] N4Ü[0] N5[3] N6K[0] N6[0]
!!!n7k: 0] N7[0] O1[0] O2K[0] O2[0] O3K[0] O3[0] HÖ[0
